packages/ui/src/lib/icons/svg/finish.svg

<svg width="100%" height="100%" viewBox="0 0 16 16" fill="none" xmlns="http://www.w3.org/2000/svg">
<path d="M2.5 10.8077H13.5V2.5H2.5V10.8077ZM2.5 10.8077V14.5" stroke="currentColor" stroke-width="1.5"/>
<path d="M4.7 7.83333H6.9V10.5H4.7V7.83333Z" fill="currentColor"/>
<path d="M9.1 7.83333H11.3V10.5H9.1V7.83333Z" fill="currentColor"/>
<path d="M6.9 5.16667H9.1V7.83333H6.9V5.16667Z" fill="currentColor"/>
<path d="M11.3 5.16667H13.5V7.83333H11.3V5.16667Z" fill="currentColor"/>
<path d="M4.7 2.5H6.9V5.16667H4.7V2.5Z" fill="currentColor"/>
<path d="M9.1 2.5H11.3V5.16667H9.1V2.5Z" fill="currentColor"/>
<path d="M2.5 5.16667L4.7 5.16667V7.83333L2.5 7.83334V5.16667Z" fill="currentColor"/>
</svg>

<svg xmlns="http://www.w3.org/2000/svg" fill="none" viewBox="0 0 16 16" width="100%" height="100%"><path stroke="currentColor" stroke-width="1.5" d="M2.5 10.808h11V2.5h-11zm0 0V14.5"/><path fill="currentColor" d="M4.7 7.833h2.2V10.5H4.7zm4.4 0h2.2V10.5H9.1zM6.9 5.167h2.2v2.666H6.9zm4.4 0h2.2v2.666h-2.2zM4.7 2.5h2.2v2.667H4.7zm4.4 0h2.2v2.667H9.1zM2.5 5.167h2.2v2.666H2.5z"/></svg>
